!!!COM: Music21
!!!OTL: Pasodoble Requinteado
!!!OMV: pezas_pasodobles_pasodoble-requinteado_pasodoble-requinteado-partitura.musicxml
**kern
*I"Bagpipes
*I'Bag
*clefG^2
*ITrd1c2
*k[b-e-]
*M2/4
=1
!LO:TX:a:t=Allegretto
*MM120
!LO:TX:a:t=[quarter]=120
8bb-L
8cccJ
8dddL
8cccJ
=||
8bb-L
8aaJ
8ggL
8aaJ
=
8ffL
8ggJ
8ee-L
8ffJ
=
8ddL
8ee-J
8ffL
8ggJ
=
8ffL
8ee-J
4ff
=
2ff
=
8bb-L
8cccJ
8dddL
8cccJ
=
8bb-L
8aaJ
8ggL
8aaJ
=
8ffL
8ggJ
8ee-L
8ffJ
!!linebreak:original
=
8ddL
8ee-J
8ffL
8ggJ
!!linebreak:original
=
8ee-L
8ffJ
16ddLL
16ee-
16dd
16ccJJ
=
[2b-
=
2b-]
=
8bb-L
8cccJ
8dddL
8cccJ
=||
8bb-L
8aaJ
8ggL
8aaJ
=
8ffL
8ggJ
8ee-L
8ffJ
=
8ddL
8ee-J
8ffL
8ggJ
=
8ffL
8ee-J
4ff
=
2ff
=
8bb-L
8cccJ
8dddL
8cccJ
!!linebreak:original
=
8bb-L
8aaJ
8ggL
8aaJ
=
8ffL
8ggJ
8ee-L
8ffJ
=
8ddL
8ee-J
8ffL
8ggJ
!!linebreak:original
=
8ee-L
8ffJ
16ddLL
16ee-
16dd
16ccJJ
=
[2b-
=
2b-]
=
8b-L
8ccJ
8ddL
8ee-J
=||
4.ff
8gg
=
8ffL
8ee-J
4ff
=
2ff
=
8b-L
8ccJ
8ddL
8ee-J
=
4.ff
8gg
=
4.ee-
8ff
!!linebreak:original
=
16ddLL
16ee-
16dd
16ccJJ
4b-
=
2b-
=
8b-L
8ccJ
8ddL
8ee-J
=||
4.ff
8gg
=
8ffL
8ee-J
4ff
=
2ff
=
8b-L
8ccJ
8ddL
8ee-J
=
4.ff
8gg
=
4.ee-
8ff
!!linebreak:original
=
16ddLL
16ee-
16dd
16ccJJ
4b-
=
2b-
=||
8bb-L
8cccJ
8dddL
8cccJ
=||
8bb-
8r
4r
==
*-
